!!!COM: Krebs, Johann Ludwig
!!!OTL: Fuga
!!!OMV: 2
!!!SCT: I.6
!!!SCA: Johann Ludwig Krebs, Sämtliche Orgelwerke. Herausgegeven von Gerhard Weinberger.
**kern	**kern	**kern	**kern
*MM76	*MM76	*MM76	*MM76
*k[b-e-a-d-]	*k[b-e-a-d-]	*k[b-e-a-d-]	*k[b-e-a-d-]
*M4/4	*M4/4	*M4/4	*M4/4
*tb64	*tb64	*tb64	*tb64
=1	=1	=1	=1
1r	1r	4c	1r
.	.	4c	.
.	.	4c	.
.	.	4c	.
=2	=2	=2	=2
1r	1r	4A-	1r
.	.	4F	.
.	.	2d-	.
=3	=3	=3	=3
1r	1r	4B-	1r
.	.	4G	.
.	.	2e	.
=4	=4	=4	=4
1r	1r	4f	1r
.	.	4d-	.
.	.	4B	.
.	.	4c	.
=5	=5	=5	=5
1r	1r	4F	4f
.	.	4A-	4f
.	.	2BB	4f
.	.	.	4f
=6	=6	=6	=6
1r	1r	4C	4e-
.	.	4E-	4c
.	.	4F	2a-
.	.	4C	.
=7	=7	=7	=7
1r	1r	4D	4f
.	.	4F	4d
.	.	4G	2b
.	.	4D	.
=8	=8	=8	=8
1r	1r	4E-	4cc
.	.	2C	4a-
.	.	.	4f#
.	.	4BB	4g
=9	=9	=9	=9
1r	1r	4C	4.c
.	.	4c	.
.	.	.	8d
.	.	4B-	4e
.	.	4A-	[4f
=10	=10	=10	=10
4C	1r	2G	4f]
4C	.	.	8e
.	.	.	8d
4C	.	[2B-	4e
4C	.	.	8f
.	.	.	8g
=11	=11	=11	=11
4AA-	1r	4B-]	2.c
4FF	.	8A-	.
.	.	8G	.
2D-	.	[2F	.
.	.	.	8B-
.	.	.	8A-
=12	=12	=12	=12
4BB-	1r	4F]	2.G
4GG	.	4d-	.
2E	.	4c	.
.	.	4B-	[4g
=13	=13	=13	=13
4F	1r	2A-	4g]
4D-	.	.	2f
4BB	.	2G	.
4C	.	.	4e
=14	=14	=14	=14
2FF	1r	4A-	4f
.	.	4c	2a-
2GG	.	2B-	.
.	.	.	8g
.	.	.	8f
=15	=15	=15	=15
2AA-	1r	2c	4e-
.	.	.	2cc
2BB-	.	2d	.
.	.	.	8b-
.	.	.	8a-
=16	=16	=16	=16
2EE-	1r	4e-	2g
.	.	4d-	.
2FF	.	4c	2aT
.	.	4e-	.
=17	=17	=17	=17
2BB-	1r	4d-	4b-
.	.	2f	4dd-
2C	.	.	4g
.	.	4e	8cc
.	.	.	8b-
=18	=18	=18	=18
2.FF	4F	4f	4a
.	4F	4g	4b-
.	4F	2a-	4cc
4BB	4F	.	4dd
=19	=19	=19	=19
2C	4E-	2g	2.ee-
.	4C	.	.
2FF	2A-	2f	.
.	.	.	8dd
.	.	.	8cc
=20	=20	=20	=20
2GG	4F	4d	2b
.	4D	2g	.
2D	2B	.	2ff
.	.	[4g	.
=21	=21	=21	=21
2.C	4c	4g]	2ee-
.	4A-	4cc	.
.	4F#	4a	2dd
4BB	4G	8g	.
.	.	8f	.
=22	=22	=22	=22
2C	8C	4e	4cc
.	8D	.	.
.	8E	4a-	4cc
.	8F	.	.
4E	8G	4g	4cc
.	8A-	.	.
4C	8B-	4e	4cc
.	8c	.	.
=23	=23	=23	=23
1F	4F	4c	4a-
.	4c	2a-	4f
.	4A-	.	2dd-
.	[4d-	8g	.
.	.	8f	.
=24	=24	=24	=24
1G	8d-]	2e	4b-
.	8c	.	.
.	8B-	.	4g
.	8A-	.	.
.	8G	2b-	2ee
.	8c	.	.
.	8B-	.	.
.	8c	.	.
=25	=25	=25	=25
4A-	4F	2a-	4ff
2F	2A-	.	4dd-
.	.	4d	4b
[4E-	4G	4c	4cc
=26	=26	=26	=26
4E-]	4A	2f	4f
4D-	4F	.	2b-
4C	4G-	4e-	.
4F	8F	4c	4a
.	8E-	.	.
=27	=27	=27	=27
2BB-	4D-	4d-	4b-
.	[4B-	4e-	4cc
2B-	8B-]	4f	4dd-
.	8A-	.	.
.	8G	[4dd-	[4ff
.	8F	.	.
=28	=28	=28	=28
2E-	4G	4dd-]	4ff]
.	4A-	4cc	[4ee-
2EE-	4G	4b-	8ee-]
.	.	.	8dd-
.	[4e-	4g	8cc
.	.	.	8b-
=29	=29	=29	=29
2A-	2e-_	8g	[1cc
.	.	8b-	.
.	.	8a-	.
.	.	8g	.
2AA-	8e-]	[2a-	.
.	8g	.	.
.	8f	.	.
.	8e	.	.
=30	=30	=30	=30
2D-	8f	2a-_	8cc]
.	8d-	.	8ff
.	8c	.	8ee
.	8d-	.	8ff
2G	8G	8a-]	[2b-
.	8f	8a-	.
.	8e	8g	.
.	8d	8f	.
=31	=31	=31	=31
2C	8c	1e	4b-]
.	8B-	.	.
.	8c	.	4g
.	8d-	.	.
2CC	8c	.	4cc
.	8B-	.	.
.	8A-	.	4b-
.	8G	.	.
=32	=32	=32	=32
2FF	8F	4f	4a-
.	8E	.	.
.	8F	4f	4b-
.	8G	.	.
2r	8A-	4f	4cc
.	8G	.	.
.	8A	4f	4dd
.	8B	.	.
=33	=33	=33	=33
1r	8c	4e-	2.cc
.	8B-	.	.
.	8A-	4c	.
.	8G	.	.
.	8F	2a-	.
.	8E-	.	.
.	8D	.	4ff
.	8C	.	.
=34	=34	=34	=34
1r	8D	4f	4b
.	8C	.	.
.	8BB	4d	4g
.	8AA	.	.
.	8GG	2b	4dd
.	8FF	.	.
.	8EE-	.	8gg
.	8DD	.	8ff
=35	=35	=35	=35
1r	4CC	4cc	2ee-
.	2C	4a-	.
.	.	4f#	2dd
.	4BB	4g	.
=36	=36	=36	=36
1r	8C	4.e-	2cc
.	8BB	.	.
.	8C	.	.
.	8D	8f	.
.	8E	8g	2b-
.	8D	8f	.
.	8E	8g	.
.	8C	8e	.
=37	=37	=37	=37
1r	4F	8f	[2a-
.	.	8e-	.
.	4A-	8f	.
.	.	8c	.
.	4B-	2d	8a-]
.	.	.	8g
.	4BB-	.	8a-
.	.	.	8f
=38	=38	=38	=38
1r	4E-	8e-	[2g
.	.	8d	.
.	4G	8e-	.
.	.	8B-	.
.	4A-	2c	8g]
.	.	.	8f
.	4AA-	.	8g
.	.	.	8e-
=39	=39	=39	=39
1r	4D	8d	[2f
.	.	8c	.
.	4F	8d	.
.	.	8A	.
.	4G	2B	8f]
.	.	.	8e
.	4GG	.	8f
.	.	.	8d
=40	=40	=40	=40
4C	4C	4c	4e
4C	[4c	4d	4f
4C	8c]	2e-	4g
.	8B-	.	.
4C	8A-	.	[4cc
.	8G	.	.
=41	=41	=41	=41
4AA-	4F	2f	8cc]
.	.	.	8b-
4FF	8c	.	8a-
.	8B-	.	8g
2D-	8A-	[2f	4f
.	8G	.	.
.	8F	.	4a-
.	8E-	.	.
=42	=42	=42	=42
4BB-	4D-	4f]	4b-
4GG	2B-	8e	2dd-
.	.	8f	.
2E	.	2g	.
.	4G	.	8cc
.	.	.	8b-
=43	=43	=43	=43
4F	4A-	2f	4a-
4D-	4F	.	2ff
4BB	4d	2g	.
4C	[4c	.	4ee
=44	=44	=44	=44
8FF	8c]	[2f	4ff
8F	8A-	.	.
8E-	8G	.	4cc
8F	8A-	.	.
8BB-	[2B-	8f]	[2dd-
8D-	.	8b-	.
8C	.	8a-	.
8D-	.	8b-	.
=45	=45	=45	=45
8EE-	8B-]	[2e-	4dd-]
8E-	8G	.	.
8D	8F	.	4b-
8E-	8G	.	.
8AA-	[2A-	8e-]	[2cc
8C	.	8a-	.
8BB-	.	8g	.
8C	.	8a-	.
=46	=46	=46	=46
8DD	8A-]	[2d	4cc]
8D	8F	.	.
8C	8E-	.	4a
8D	8F	.	.
2GG	8G	8d]	2b
.	8F	8a-	.
.	8E	8g	.
.	8D	8f	.
=47	=47	=47	=47
1C	4C	4e	4cc
.	4D	4f	2b-
.	4E	4g	.
.	4F	[4f	4a-
=48	=48	=48	=48
1CC	4G	2f]	1g
.	8A-	.	.
.	8B-	.	.
.	4c	2e	.
.	4B-	.	.
=49	=49	=49	=49
2FF	8A-	4f	4f
.	8c	.	.
.	8F	4f	4r
.	8A-	.	.
2GG	8D	4f	2r
.	8F	.	.
.	8BB	4f	.
.	8D	.	.
=50	=50	=50	=50
2C	4GG	4e-	1r
.	[4E-	4c	.
2FF	8E-]	2a-	.
.	8C	.	.
.	8F	.	.
.	8E-	.	.
=51	=51	=51	=51
2AA-	4D	4f	1r
.	[4F	4d	.
2GG	8F]	2b	.
.	8D	.	.
.	8G	.	.
.	8F	.	.
=52	=52	=52	=52
2.C	4E-	4cc	1r
.	2e-	4a-	.
.	.	4f#	.
4BB	4d	4g	.
=53	=53	=53	=53
4BB-	4c	4e	1r
4AA-	2f	4cc	.
4GG	.	4b-	.
4C	4e	8a-	.
.	.	8g	.
=54	=54	=54	=54
8FF	4f	4a-	1r
8F	.	.	.
8E-	[4a-	4cc	.
8F	.	.	.
2D-	8a-]	4ff	.
.	8g	.	.
.	8f	4a-	.
.	8e-	.	.
=55	=55	=55	=55
2E-	4d-	4g	4ee-
.	4c	2a-	4ee-
2EE-	4B-	.	4ee-
.	[4e-	4g	4ee-
=56	=56	=56	=56
2AA-	8e-]	4a-	4cc
.	8d-	.	.
.	8c	4e-	4a-
.	8B-	.	.
4D-	8A-	4f	2ff
.	8G	.	.
4AA	[4F	4cc	.
=57	=57	=57	=57
2BB-	8F]	4b-	4dd
.	8E-	.	.
.	8D	4f	4b-
.	8C	.	.
2E-	8BB-	4g	2gg
.	8E-	.	.
.	8D-	4b-	.
.	8E-	.	.
=58	=58	=58	=58
2.AA-	8C	4a-	4aa-
.	8A-	.	.
.	8G	4cc	4ff
.	8A-	.	.
.	8F	4b-	4dd
.	8B-	.	.
4GG	8G	4e-	4ee-
.	8B-	.	.
=59	=59	=59	=59
4GG-	4E-	4c	4a-
4FF	2D-	4a-	4dd-
4EE-	.	4g-	4ee-
4AA-	4C	[4a-	8ff
.	.	.	8gg-
=60	=60	=60	=60
2D-	4D-	4a-]	4ff
.	4f	4a-	4dd-
4A-	8e-	4a-	8cc
.	8f	.	8dd-
4C	4g-	4a-	4ee-
=61	=61	=61	=61
2D-	[2f	4f	4a-
.	.	4d-	8b-
.	.	.	8cc
2BB-	8f]	2b-	2dd-
.	8e-	.	.
.	8d-	.	.
.	8c	.	.
=62	=62	=62	=62
2C	4B-	4g-	4ee-
.	[4e-	4e-	2gg-
2AA-	8e-]	2cc	.
.	8d-	.	.
.	8c	.	4a-
.	8B-	.	.
=63	=63	=63	=63
2.D-	4A-	4dd-	2ff
.	4f	4b-	.
.	4B-	4g	[2ee-
4C	4e-	4a-	.
=64	=64	=64	=64
2D-	2.A-	2.f	4ee-]
.	.	.	8dd-
.	.	.	8cc
2BB-	.	.	[2dd-
.	8B-	8g-	.
.	8A-	8f	.
=65	=65	=65	=65
2C	2.G	2.e	4dd-]
.	.	.	8cc
.	.	.	8b
2AA-	.	.	[2cc
.	8A-	8f	.
.	8G-	8e-	.
=66	=66	=66	=66
2BB-	2.F	2.d-	4cc]
.	.	.	8b-
.	.	.	8a
2GG	.	.	[2b-
.	8E	8g	.
.	8D-	8f	.
=67	=67	=67	=67
2C	4C	4e	4b-]
.	4B-	4g	4dd-
2CC	4A-	4f	4cc
.	4e	4b-	[4gg
=68	=68	=68	=68
4F	2.c	2.a-	4gg]
4F	.	.	8ff
.	.	.	8ee
4F	.	.	4ff
4F	4d	4a-	4b
=69	=69	=69	=69
4E-	[1c	2g	4cc
4C	.	.	2ee-
2A-	.	2f	.
.	.	.	8dd
.	.	.	8cc
=70	=70	=70	=70
4F	4c]	4a-	4dd
4D	8B	8g	2ff
.	8A	8f	.
2B	4G	4dd	.
.	4d	[4g	8ee-
.	.	.	8dd
=71	=71	=71	=71
4c	2.c	4g]	2ee-
4A-	.	4a-	.
4F#	.	4a	2dd
4G	8B	8g	.
.	8A	8f	.
=72	=72	=72	=72
8C	4G	4e	4cc
8c	.	.	.
8B-	4e	4g	[4cc
8c	.	.	.
8A-	2c	2f	8cc]
8c	.	.	8b-
8F	.	.	8a-
8A-	.	.	8g
=73	=73	=73	=73
8BB-	2d	4d	4f
8B-	.	.	.
8A-	.	4f	[4b-
8B-	.	.	.
8G	2B-	2e-	8b-]
8B-	.	.	8a-
8E-	.	.	8g
8G	.	.	8f
=74	=74	=74	=74
8AA-	2c	4c	4e-
8A-	.	.	.
8G	.	4e-	[4a-
8A-	.	.	.
8F	2A-	2d	8a-]
8A-	.	.	8g
8D	.	.	8f
8F	.	.	8e-
=75	=75	=75	=75
8GG	2B	4B	4d
8G	.	.	.
8F	.	4d	[4g
8G	.	.	.
8E	2G	2c	8g]
8G	.	.	8f
8C	.	.	8e
8E	.	.	8d
=76	=76	=76	=76
4FF	2A-	4A-	4c
2D-	.	4B-	4f
.	4G	4c	4e
4C	4e	[4g	[4b-
=77	=77	=77	=77
4F	4c	4g]	4b-]
4C	4c	8f	8a-
.	.	8e	8g
4AA-	4c	4f	4a-
4C	4c	4e	4g
=78	=78	=78	=78
2FF	4A-	4f	4a-
.	4F	2a-	2cc
2BB-	2d-	.	.
.	.	8g	8b-
.	.	8f	8a-
=79	=79	=79	=79
2C	4B-	4e	4g
.	4G	2b-	2dd-
2CC	2e	.	.
.	.	8a-	8cc
.	.	8g	8b-
=80	=80	=80	=80
4FF	4f	4a-	2a-
2F	4d-	4f	.
.	4B	4d	[2g
4E	8c	8e	.
.	8B-	8d	.
=81	=81	=81	=81
4F	2A-	2c	4g]
4C	.	.	8g
.	.	.	8e
4AA-	8c	4f	4f
.	8B-	.	.
4FF	8A-	[4cc	4ee-
.	8G	.	.
=82	=82	=82	=82
2BB-	2F	4cc]	2dd-
.	.	8b-	.
.	.	8a-	.
2C	4c	8g	2ee
.	.	8cc	.
.	4G	8b-	.
.	.	8cc	.
=83	=83	=83	=83
2D-	4F	4a-	2.ff
.	8G	2dd-	.
.	8A-	.	.
4BB-	4B-	.	.
4C	8A-	4cc	4ee
.	8G	.	.
=84	=84	=84	=84
2FF	2A-	2cc	2ff
2r	2r	2e	2r
=85	=85	=85	=85
1r	8r	2f	1r
.	8F	.	.
.	8E-	.	.
.	8F	.	.
.	8D-	2ff	.
.	8E-	.	.
.	8C	.	.
.	8D-	.	.
=86	=86	=86	=86
1r	8BB-	2dd-	1r
.	8G	.	.
.	8F	.	.
.	8G	.	.
.	8E	2g	.
.	8F	.	.
.	8D	.	.
.	8E	.	.
=87	=87	=87	=87
1r	8F	4a-	1r
.	8d-	.	.
.	8c	2ff	.
.	8d-	.	.
.	8G	.	.
.	8c	.	.
.	8B-	4ee	.
.	8c	.	.
=88	=88	=88	=88
1r	8A-	8ff	2ff
.	8F	8aa-	.
.	8E	8gg	.
.	8F	8aa-	.
.	4G	8dd	2b
.	.	8gg	.
.	4GG	8ff	.
.	.	8gg	.
=89	=89	=89	=89
1r	8C	2cc	2ee
.	8c	.	.
.	8B-	.	.
.	8c	.	.
.	8A-	4ff	2ccc
.	8B-	.	.
.	8G	4ee	.
.	8A-	.	.
=90	=90	=90	=90
1r	8F	4ff	2aa-
.	8G	.	.
.	8E-	2cc	.
.	8F	.	.
.	8G	.	2dd
.	8F	.	.
.	8E-	4b	.
.	8D	.	.
=91	=91	=91	=91
1r	4C	8cc	4ee-
.	.	8ee-	.
.	4A-	8dd	2ccc
.	.	8ee-	.
.	4F	8dd	.
.	.	8aa-	.
.	4G	8gg	4bb
.	.	8ff	.
=92	=92	=92	=92
1r	8c	4ee	4ccc
.	8d-	.	.
.	8B-	2cc	4ee
.	8c	.	.
.	8A-	.	4ff
.	8B-	.	.
.	8G	4b-	[4gg
.	8A-	.	.
=93	=93	=93	=93
1r	4F	[2a-	4gg]
.	4G	.	8ff
.	.	.	8ee
.	4A-	8a-]	[2ff
.	.	8cc	.
.	4F	8b-	.
.	.	8a-	.
=94	=94	=94	=94
1r	2c	[2g	4ff]
.	.	.	8ee
.	.	.	8dd
.	2E	8g]	[2cc
.	.	8b-	.
.	.	8a-	.
.	.	8g	.
=95	=95	=95	=95
1r	2F	[2a-	8cc]
.	.	.	8cc
.	.	.	8b-
.	.	.	8cc
.	2f	8a-]	[2dd-
.	.	8a-	.
.	.	8g	.
.	.	8a-	.
=96	=96	=96	=96
1r	2d-	2b-	8dd-]
.	.	.	8ff
.	.	.	8ee
.	.	.	8ff
.	2G	2e	8b-
.	.	.	8gg
.	.	.	8ff
.	.	.	8gg
=97	=97	=97	=97
1r	4A-	4f	4cc
.	2f	4cc	4aa-
.	.	4dd-	4b-
.	4e	8cc	[4gg
.	.	8b-	.
=98	=98	=98	=98
1r	[2f	[2a-	4gg]
.	.	.	8ff
.	.	.	8ee
.	8f]	8a-]	[2ff
.	8a-	8cc	.
.	8g	8b-	.
.	8a-	8cc	.
=99	=99	=99	=99
1r	4b-	4dd-	8ff]
.	.	.	4ff
.	4a-	4cc	.
.	.	.	4ff
.	4g	4b-	.
.	.	.	4ee-
.	4f	4a-	.
.	.	.	[8dd-
=100	=100	=100	=100
1r	[2e	[2g	8dd-]
.	.	.	8dd-
.	.	.	8cc
.	.	.	8b
.	8e]	8g]	[2cc
.	8c	8e	.
.	8d	8f	.
.	8e	8g	.
=101	=101	=101	=101
1r	8f	[2a-	8cc]
.	8e-	.	8cc
.	8d-	.	8b-
.	8c	.	8cc
.	8B-	8a-]	[2dd-
.	8g	8a-	.
.	8e-	8g	.
.	8d-	8f	.
=102	=102	=102	=102
1r	2e-	[2g	8dd-]
.	.	.	8dd-
.	.	.	8cc
.	.	.	8b-
.	8A-	8g]	[2cc
.	8e-	8g	.
.	8d-	8f	.
.	8c	8e	.
=103	=103	=103	=103
1r	2d-	[2f	8cc]
.	.	.	8cc
.	.	.	8b-
.	.	.	8a-
.	8G	8f]	[2b-
.	8d-	8f	.
.	8c	8e	.
.	8B-	8d	.
=104	=104	=104	=104
1r	4c	2e	8b-]
.	.	.	8g
.	4B-	.	8cc
.	.	.	8b-
.	4A-	4.f	8cc
.	.	.	8f
.	[4G	.	4b-
.	.	8e	.
=105	=105	=105	=105
2F	4G]	2c	2.a-
.	8F	.	.
.	8E	.	.
2BB	[2F	[2d	.
.	.	.	4a-
=106	=106	=106	=106
2C	4F]	4d]	2.g
.	8E	8c	.
.	8D	8B	.
2c	4E	4c	.
.	[4c	4e	4g
=107	=107	=107	=107
2A-	8c]	4f	2.cc
.	8B-	.	.
.	8A-	8cc	.
.	8G	8b-	.
2D	4F	2a-	.
.	4B	.	[4ff
=108	=108	=108	=108
4E-	2c	2g	4ff]
2c	.	.	4ee-
.	4.f	4a-	2dd
4B	.	[4g	.
.	8f	.	.
=109	=109	=109	=109
4c	2e	8g]	[2cc
.	.	8g	.
4B-	.	8a-	.
.	.	8b-	.
4A-	[2c	8cc	4cc]
.	.	4f	.
4G	.	.	4b-
.	.	8e	.
=110	=110	=110	=110
4F	8c]	4f	4a-
.	8c	.	.
4E-	8d	4a	4cc
.	8e-	.	.
4D	8f	[2f	4dd
.	4B-	.	.
4C	.	.	4ee-
.	8A	.	.
=111	=111	=111	=111
4BB-	4B-	8f]	4dd
.	.	8f	.
4AA-	4d	8g	[4b-
.	.	8a-	.
4GG	[2B-	8b-	4b-]
.	.	4e-	.
4FF	.	.	4a-
.	.	8d	.
=112	=112	=112	=112
8EE-	4B-]	4e-	4g
8E-	.	.	.
8D-	2e-	4g	4b-
8E-	.	.	.
8C	.	4a-	4ee-
8E-	.	.	.
8BB-	[4e-	[4g	4dd-
8E-	.	.	.
=113	=113	=113	=113
2AA-	8e-]	8g]	[1cc
.	8g	8b-	.
.	8f	8a-	.
.	8e-	8g	.
2A-	8f	8a-	.
.	8e	8g	.
.	8d-	8f	.
.	8c	8e	.
=114	=114	=114	=114
8DD-	2d-	1f	4cc]
8D-	.	.	.
8C	.	.	4a-
8D-	.	.	.
8BB-	4G	.	4dd-
8D-	.	.	.
8AA-	4c	.	4cc
8F	.	.	.
=115	=115	=115	=115
8GG	4d-	[1g	4b-
8G	.	.	.
8F	4B-	.	4dd-
8G	.	.	.
8E-	4c	.	4gg
8G	.	.	.
8D-	4B-	.	[4ff
8G	.	.	.
=116	=116	=116	=116
[2C	2c	2.g]	4ff]
.	.	.	8ee
.	.	.	8dd
8C]	2E	.	[2cc
8D-	.	.	.
8BB-	.	4g	.
8C	.	.	.
=117	=117	=117	=117
2AA-	2F	8f	2cc_
.	.	8g	.
.	.	8a-	.
.	.	8b-	.
2FF	2f	[2a-	8cc]
.	.	.	8cc
.	.	.	8b-
.	.	.	8cc
=118	=118	=118	=118
2BB-	2d-	8a-]	[2dd-
.	.	8a-	.
.	.	8g	.
.	.	8f	.
2C	2G	2e	8dd-]
.	.	.	8dd-
.	.	.	8cc
.	.	.	8b-
=119	=119	=119	=119
4F	4A-	4c	2a-
4D-	2f	4f	.
4BB-	.	2g	4dd-
4C	4e	.	8cc
.	.	.	8b-
=120	=120	=120	=120
2FF	4f	4c	4a-
.	8f	2a-	4cc
.	8g	.	.
2DD	8a-	.	8ff
.	8g	.	8ee-
.	8f	4a-	8dd
.	8e-	.	8cc
=121	=121	=121	=121
2GG	4d	4g	4b
.	8g	4b	4dd
.	8f	.	.
2G	8e-	4cc	8gg
.	8d	.	8ff
.	8c	[4g	8ee-
.	8B	.	8dd
=122	=122	=122	=122
4C	4c	4g]	4ee-
2FF	8f	2a-	8dd-
.	8e-	.	8cc
.	4f	.	4dd-
4F	4d	4a-	4b
=123	=123	=123	=123
2F#	2e-	2a	4.ccS
.	.	.	8dd
2G	2d	[2g	4.bT
.	.	.	8cc
=124	=124	=124	=124
2C	2e	2g]	8cc
.	.	.	8gg
.	.	.	8ee
.	.	.	8cc
[2CC	2e	2g	8b-
.	.	.	8gg
.	.	.	8ee
.	.	.	8b-
=125	=125	=125	=125
2CC]	8C	4b-	4dd-
.	8D	.	.
.	8E	2a-	2cc
.	8F	.	.
2C	8G	.	.
.	8A-	.	.
.	8B-	4g	4b-
.	8c	.	.
=126	=126	=126	=126
2F	8F	4f	4a-
.	8c	.	.
.	8B-	2f	2a-
.	8c	.	.
2BB-	8d-	.	.
.	8A-	.	.
.	8G	[4b-	[4dd-
.	8F	.	.
=127	=127	=127	=127
2E-	8G	4b-]	4dd-]
.	8B-	.	.
.	8A-	2e-	2g
.	8B-	.	.
2AA-	8c	.	.
.	8G	.	.
.	8F	[4a-	[4cc
.	8E	.	.
=128	=128	=128	=128
2D-	8F	4a-]	4cc]
.	8A-	.	.
.	8G	2d-	2f
.	8A-	.	.
2GG	8B-	.	.
.	8F	.	.
.	8E	[4g	[4b-
.	8D	.	.
=129	=129	=129	=129
2C	8E	4g]	4b-]
.	8G	.	.
.	8F	4c	4e
.	8A-	.	.
2CC	8c	4d	4f
.	8B-	.	.
.	8A-	4e	4g
.	8G	.	.
=130	=130	=130	=130
2FF	8F	2f	4a-
.	8G	.	.
.	8E-	.	4cc
.	8F	.	.
2GG	4D	2B	4ff
.	[4G	.	8ee-
.	.	.	8dd
=131	=131	=131	=131
2CC	4G]	2c	4ee-
.	8e-	.	8gg
.	8d	.	8ff
2r	8c	2cc	4ee-
.	8B-	.	.
.	8A-	.	[4cc
.	8G	.	.
=132	=132	=132	=132
1r	8F	2a-	4cc]
.	8G	.	.
.	8E-	.	2cc
.	8F	.	.
.	4G	2d	.
.	4GG	.	4b
=133	=133	=133	=133
1r	4C	4e-	4cc
.	8A-	[4cc	4ee-
.	8G	.	.
.	4F	4cc]	2dd
.	4G	4b	.
=134	=134	=134	=134
1r	8C	4cc	4ee-
.	8G	.	.
.	8c	[4cc	4ee-
.	8B-	.	.
.	8A-	2cc_	4ff
.	8c	.	.
.	8F	.	4ee-
.	8A-	.	.
=135	=135	=135	=135
1r	8BB-	4cc]	4dd
.	8F	.	.
.	8B-	[4b-	4dd
.	8A-	.	.
.	8F	2b-_	4ee-
.	8B-	.	.
.	8E-	.	4dd
.	8G	.	.
=136	=136	=136	=136
1r	8AA-	4b-]	4cc
.	8E-	.	.
.	8A-	[4a-	4cc
.	8G	.	.
.	8F	2a-_	4dd
.	8A-	.	.
.	8D	.	4cc
.	8F	.	.
=137	=137	=137	=137
1r	8GG	4a-]	4b-
.	8D	.	.
.	8G	[4g	4b-
.	8F	.	.
.	8E-	2g_	4cc
.	8G	.	.
.	8C	.	4b-
.	8E-	.	.
=138	=138	=138	=138
1r	8FF	4g]	4a-
.	8C	.	.
.	8F	[4f	4a-
.	8E-	.	.
.	8D	2f_	4b-
.	8F	.	.
.	8BB-	.	4a-
.	8D	.	.
=139	=139	=139	=139
1r	4EE-	4f]	[2g
.	4BB-	8e-	.
.	.	8d	.
.	4E-	4e-	8g]
.	.	.	4b-
.	4GG	4d-	.
.	.	.	[8b-
=140	=140	=140	=140
1r	2AA-	[2c	8b-]
.	.	.	8b-
.	.	.	8a-
.	.	.	8g
.	2FF	8c]	[2a-
.	.	8f	.
.	.	8c	.
.	.	8e-	.
=141	=141	=141	=141
1r	8BB-	4d	4a-]
.	8B-	.	.
.	8A-	2e-	2g
.	8B-	.	.
.	8BB-	.	.
.	8B-	.	.
.	8A-	[4d	[4f
.	8B-	.	.
=142	=142	=142	=142
1r	8BB-	4d]	4f]
.	8B-	.	.
.	8A-	2e-	2g
.	8B-	.	.
.	8G	.	.
.	8A-	.	.
.	8F	4f	4a-
.	8G	.	.
=143	=143	=143	=143
1r	4E-	4g	2b-
.	8G	2b-	.
.	8A-	.	.
.	4B-	.	2d
.	4BB-	4a-	.
=144	=144	=144	=144
1r	8E-	2g	2e-
.	8F	.	.
.	8D-	.	.
.	8E-	.	.
.	8C	4b-	2ee-
.	8D-	.	.
.	8BB-	4g	.
.	8C	.	.
=145	=145	=145	=145
1r	8AA-	4a-	2cc
.	8G	.	.
.	8F	2cc	.
.	8E-	.	.
.	2D	.	2f
.	.	8b-	.
.	.	8a-	.
=146	=146	=146	=146
1r	4E-	2g	4g
.	4c	.	2ee-
.	4A-	2f	.
.	4B-	.	[4dd
=147	=147	=147	=147
1r	4C	2e-	4dd]
.	4A-	.	2cc
.	4F	2d	.
.	4G	.	[4b-
=148	=148	=148	=148
1r	4AA-	2c	4b-]
.	4F	.	2a-
.	4D	2B-	.
.	4E-	.	[4g
=149	=149	=149	=149
1r	[2AA-	1c	4g]
.	.	.	8f
.	.	.	8e
.	8AA-]	.	4f
.	8A-	.	.
.	8F	.	[4a-
.	8D	.	.
=150	=150	=150	=150
1r	[2GG	2.B	4a-]
.	.	.	8g
.	.	.	8f
.	8GG]	.	[2g
.	8G	.	.
.	8E	4B-	.
.	8C	.	.
=151	=151	=151	=151
1r	[2FF	2.A	4g]
.	.	.	8f
.	.	.	8e
.	8FF]	.	[2f
.	8F	.	.
.	8D	4A-	.
.	8BB	.	.
=152	=152	=152	=152
2C	[2C	2G	4f]
.	.	.	4e
2EE	8C]	[2g	[2b-
.	8c	.	.
.	8G	.	.
.	8E	.	.
=153	=153	=153	=153
2FF	[2C	4g]	4b-]
.	.	4f	4a-
2F	8C]	2a	4ee-
.	8f	.	.
.	8c	.	[4f
.	8A	.	.
=154	=154	=154	=154
2D-	8F	2b-	4f]
.	8f	.	.
.	8d-	.	4ff
.	[8B-	.	.
2GG	8B-]	2dd-	4ee
.	8g	.	.
.	8e	.	4gg
.	8B-	.	.
=155	=155	=155	=155
4AA-	8c	4cc	4ff
.	8a-	.	.
2F	8f	2dd-	4aa-
.	8c	.	.
.	8B-	.	2gg
.	8g	.	.
4E	8e	[4cc	.
.	8B-	.	.
=156	=156	=156	=156
4F	8AA-	8cc]	[2ff
.	8A-	8cc	.
4FF	8G	8b-	.
.	8A-	8cc	.
8BB-	[2B-	[2dd-	8ff]
8D-	.	.	8ff
8C	.	.	8ee-
8D-	.	.	8ff
=157	=157	=157	=157
4EE-	8B-]	8dd-]	1gg
.	8d-	8ff	.
4E-	8c	8ee-	.
.	8B-	8dd-	.
4AA-	8A-	8cc	.
.	8c	8ee-	.
4A-	8B-	8dd-	.
.	[8A-	[8cc	.
=158	=158	=158	=158
4DD-	8A-]	8cc]	1ff
.	8c	8ee-	.
4D-	8B-	8dd-	.
.	8A-	8cc	.
4GG	8G	8b-	.
.	8B-	8dd-	.
4G	8A-	8cc	.
.	[8G	[8b-	.
=159	=159	=159	=159
1C	8G]	8b-]	2ee
.	8B-	8dd-	.
.	8A-	8cc	.
.	8G	8b-	.
.	8F	8a-	[2ff
.	8A-	8cc	.
.	8G	8b-	.
.	8F	8a-	.
=160	=160	=160	=160
1CC 1C	1C 1cc	4g	2ff]
.	.	4a-	.
.	.	2b-	2ee
=161	=161	=161	=161
2FF	4c	2cc 2a-	2ff
.	4c	.	.
8CC	4c	2e	2r
8C	.	.	.
8BB-	4c	.	.
8C	.	.	.
=162	=162	=162	=162
[2FF	4A-	2f	1r
.	4F	.	.
8FF]	2d-	2ff	.
8F	.	.	.
8E	.	.	.
8F	.	.	.
=163	=163	=163	=163
[2GG	4B-	2dd-	1r
.	4G	.	.
8GG]	2e	2g	.
8C	.	.	.
8BB-	.	.	.
8C	.	.	.
=164	=164	=164	=164
4FF	4f	4a-	1r
4BB-	4d-	2ff	.
4GG	4B	.	.
4C	4c	4ee	.
=165	=165	=165	=165
4D-	4F	4ff	1r
4G-	4d-	2b-	.
4E-	4G-	.	.
4F	4c	4a	.
=166	=166	=166	=166
2BB-	4d-	4b-	1r
.	4f	2dd-	.
2C	2e	.	.
.	.	8cc	.
.	.	8b-	.
=167	=167	=167	=167
4FF	2c	2a	2ff
4FF	.	.	.
4FF	2d	2g	2b
4FF	.	.	.
=168	=168	=168	=168
4EE-	4c	4g	2cc
4CC	4e-	4g	.
2AA-	4d	4f	2ccc
.	4c	4e	.
=169	=169	=169	=169
4FF	4d	2f	2aa-
4DD	4c	.	.
2BB	4B	4g	2dd
.	[4G	4f	.
=170	=170	=170	=170
4C	4G]	4e-	4ee-
4AA-	2e-	4a-	2ccc
4FF#	.	4a	.
4GG	4d	8g	4bb
.	.	8f	.
=171	=171	=171	=171
4BB-	4c	4e	4ccc
4AA-	4c	2f	4ff
4GG	4d-	.	4bb-
4C	4c	4e	8aa-
.	.	.	8gg
=172	=172	=172	=172
2FF	2c	2f	8aa-
.	.	.	8gg
.	.	.	8ff
.	.	.	8aa-
[2F	4f	2a-	8dd-
.	.	.	8aa-
.	4e-	.	8cc
.	.	.	8aa-
=173	=173	=173	=173
2F]	8d	4g	4b
.	8c	.	.
.	8B	4dd	[4gg
.	8A	.	.
[2E-	4G	4cc	8gg]
.	.	.	8ff
.	[4c	4g	8ee-
.	.	.	8dd
=174	=174	=174	=174
2E-]	8c]	4a	4cc
.	8B-	.	.
.	8A	4cc	[4ff
.	8G	.	.
2D	4F	4b-	8ff]
.	.	.	8ee-
.	[4B-	4f	8dd
.	.	.	8cc
=175	=175	=175	=175
2D-	8B-]	4g	4b-
.	8A-	.	.
.	8G	4b-	4ee-
.	8F	.	.
2C	4E-	8a-	2ee-
.	.	8cc	.
.	[4A-	8b-	.
.	.	8cc	.
=176	=176	=176	=176
2BB-	8A-]	4f	2dd
.	8F	.	.
.	8E-	4b-	.
.	8F	.	.
2BB	4D	8r	2dd
.	.	8g	.
.	[4G	8f	.
.	.	8g	.
=177	=177	=177	=177
2C	8G]	8e-	[2cc
.	8E-	8g	.
.	8D	8f	.
.	8E-	8g	.
2FF	4F	4a-	8cc]
.	.	.	4cc
.	4E-	[4g	.
.	.	.	8cc
=178	=178	=178	=178
2GG	4D	2g]	4b
.	2B	.	4dd
2G	.	2dd	4gg
.	8A	.	[4ff
.	8B	.	.
=179	=179	=179	=179
2C	2c	4cc	4ff]
.	.	4cc	8ee
.	.	.	8ff
2r	2E	4cc	4gg
.	.	4cc	[4cc
=180	=180	=180	=180
1r	2F	4a-	4cc]
.	.	4f	4a-
.	2f	2dd-	4aa-
.	.	.	[4ff
=181	=181	=181	=181
1r	2d-	4b-	4ff]
.	.	4g	4ee
.	2G	2ee-	2bb-
=182	=182	=182	=182
1r	4A-	4ff	2aa-
.	2f	4dd-	.
.	.	4b	2gg
.	4e	4cc	.
=183	=183	=183	=183
1r	4f	4f	4aa-
.	2d-	4a-	4ff
.	.	4b-	4ee
.	8c	8a-	4ff
.	8B-	8b-	.
=184	=184	=184	=184
1r	4A-	8cc	2.cc
.	.	8b-	.
.	8c	8a-	.
.	8B-	8g	.
.	8A-	4f	.
.	8G	.	.
.	8F	4a	4cc
.	8E-	.	.
=185	=185	=185	=185
1r	4D-	8b-	2ff
.	.	8dd-	.
.	4G-	8cc	.
.	.	8dd-	.
.	4C	8a	2ee-
.	.	8cc	.
.	4F	8b-	.
.	.	8cc	.
=186	=186	=186	=186
1r	2BB-	8dd-	[2dd-
.	.	8a	.
.	.	8b-	.
.	.	8dd-	.
.	2C	4.e	8dd-]
.	.	.	8dd-
.	.	.	[4cc
.	.	8e	.
=187	=187	=187	=187
1r	2D	4f	8cc]
.	.	.	8cc
.	.	[4b-	8b-
.	.	.	8ff
.	2E	8b-]	2gg
.	.	8b-	.
.	.	8cc	.
.	.	8b-	.
=188	=188	=188	=188
2F	4F	4a-	4ff
.	2A-	4cc	4ff
2BB	.	4ff	4ff
.	4d	4a-	4ff
=189	=189	=189	=189
2C	4c	2g	4ee-
.	2e-	.	4cc
2c	.	2a-	2aa-
.	4e-	.	.
=190	=190	=190	=190
2A-	4d	2b-	4ff
.	2f	.	4dd
2D	.	2a-	2bb
.	4f	.	.
=191	=191	=191	=191
4E-	4e-	4g	4ccc
2c	2e-	4a-	4aa-
.	.	4a	4ff#
4B	4d	8g	4gg
.	.	8f	.
=192	=192	=192	=192
4c	4c	4e	8cc
.	.	.	8gg
4B-	2c	4e	8aa-
.	.	.	8bb-
4A-	.	4f	8ccc
.	.	.	8ff
4G	4c	4e	8bb-
.	.	.	8ee
=193	=193	=193	=193
4F	4c 4A-	4f	8aa-
.	.	.	8gg
4G	4B-	4d-	8ff
.	.	.	8ee
4A-	4c	4c	4ff
4B-	4d-	4f 4b-	4gg
=194	=194	=194	=194
2c	2A- 2c	2f 2a-	2cc
2C	2G 2c	2g 2b-	2cc 2ee
=195	=195	=195	=195
1F 1FF	1F 1A- 1c	1f 1a-	1cc 1ff
==	==	==	==
*-	*-	*-	*-
!!!ENC: Peter van Kranenburg (peter@musical-style-recognition.net)
!!!END: 2006-11-9
